static/assets/svg/human/humanClothes/female_shoes/female_shoes3.svg

<svg class="shoes" width="86" height="380" viewBox="202.715 584.407 86.593 380.048" xmlns="http://www.w3.org/2000/svg" xmlns:xlink="http://www.w3.org/1999/xlink"><defs><pattern id="h" patternTransform="scale(2.8174)" xlink:href="#a"/><pattern id="g" patternTransform="scale(.29409)" xlink:href="#b"/><pattern id="f" patternTransform="scale(.60417)" xlink:href="#c"/><pattern id="e" patternTransform="translate(1024 446.51)" xlink:href="#d"/><pattern id="d" width="129.796" patternUnits="userSpaceOnUse" patternTransform="translate(834.11 482.88)" height="226.417"><path d="M21.601 52.341S45.887-9.088 80.173 3.769c34.287 12.858 62.857 54.286 38.567 77.143C94.458 103.77 24.458 185.202 5.89 152.34c-18.575-32.86 34.283-81.428 55.711-71.428 21.429 10 65.719-28.571 64.289 39.998-1.43 68.57-37.146 128.57-54.289 92.86S23.03 55.2 21.601 52.34z" fill-rule="evenodd" stroke="#053fa0" stroke-width="4" fill="#ffed00"/></pattern><pattern id="c" width="193.949" patternUnits="userSpaceOnUse" patternTransform="translate(1004.1 440.81)" height="232.117"><path fill-rule="evenodd" fill="#fff" d="M1004.1 440.81h193.95v231.73H1004.1z" transform="translate(-1004.1 -440.81)"/><path fill="url(#e)" d="M1024 446.51h129.8v226.42H1024z" transform="translate(-1004.1 -440.81)"/></pattern><pattern id="b" width="117.178" patternUnits="userSpaceOnUse" patternTransform="translate(979.85 512.49)" height="140.238"><path fill="url(#f)" d="M0 0h117.18v140.24H0z"/></pattern><pattern id="a" width="34.461" patternUnits="userSpaceOnUse" patternTransform="translate(979.85 611.48)" height="41.243"><path fill="url(#g)" d="M0 0h34.461v41.243H0z"/></pattern><radialGradient id="j" gradientUnits="userSpaceOnUse" cy="4.317" cx="-244.78" gradientTransform="matrix(1 0 0 .99358 0 .028)" r="18.846"><stop offset="0" stop-color="#4d4d4d"/><stop offset="1" stop-color="#4c3b34"/></radialGradient><linearGradient id="k" y2="220.86" gradientUnits="userSpaceOnUse" x2="409.7" y1="340.76" x1="409.58"><stop offset="0"/><stop offset="1" stop-opacity="0"/></linearGradient><linearGradient id="l" y2="231.21" gradientUnits="userSpaceOnUse" x2="532.83" y1="229.45" x1="555.37"><stop offset="0" stop-color="#4a3932"/><stop offset="1" stop-color="#706059"/></linearGradient><radialGradient id="m" gradientUnits="userSpaceOnUse" cy="429.19" cx="244.77" r="12.446"><stop offset="0" stop-color="#999"/><stop offset="1" stop-color="#7c6c65"/></radialGradient><linearGradient id="n" y2="274.82" gradientUnits="userSpaceOnUse" x2="391.34" y1="252.52" x1="380.11"><stop offset="0"/><stop offset="1" stop-opacity="0"/></linearGradient><linearGradient id="o" y2="268.1" gradientUnits="userSpaceOnUse" x2="404.26" y1="256.07" x1="393.89"><stop offset="0"/><stop offset="1" stop-opacity="0"/></linearGradient><linearGradient id="p" y2="80.156" gradientUnits="userSpaceOnUse" x2="512.16" y1="116.66" x1="449.04" gradientTransform="matrix(1.6825 0 0 .79752 -234.733 41.038)"><stop offset="0" stop-color="#805d37"/><stop offset=".441" stop-color="#2b1100"/><stop offset="1" stop-color="#805d37"/></linearGradient><linearGradient id="q" gradientUnits="userSpaceOnUse" x1="-409.939" y1="133.527" x2="-409.939" y2="348.727"><stop offset="0" stop-color="#aae1e4"/><stop offset="1" stop-color="#5cc6cb"/></linearGradient><radialGradient id="i" gradientUnits="userSpaceOnUse" cx="476.888" cy="153.294" r="52.885"><stop offset="0" stop-color="#7bcece"/><stop offset="1" stop-color="#3da6a6"/></radialGradient></defs><path d="M261.03 951.765l1.19-.884-.113-4.484-2.606-1.835 1.53 7.203z"/><path d="M433.13 196.03c-.217-5.831-1.105-11.618-1.681-17.425-1.07-10.79-2.319-21.562-3.297-32.36-1.578-17.408-4.149-52.274-4.149-52.274l.83-10.787s20.935-12.522 32.36-11.616c6.293.499 10.285 8.912 16.595 9.127 8.533.291 14.699-10.508 23.233-10.787 9.189-.3 25.722 9.957 25.722 9.957s4.114 26.049 2.963 38.998c-.397 4.475 3.788 8.787 3.949 13.276.082 2.279.159 5.665.093 7.945-.134 4.634-.389 5.947-.784 10.567-.356 4.17-.427 9.711.208 13.848.98 6.382-1.692 12.872.07 19.084 1.219 4.299-1.238 7.987-1.521 12.446-.36 5.684-8.297 14.935-8.297 14.935l-23.706 21.09-11.973 4.632-51.103-18.254s.766-14.939.489-22.403l-.001.001z" fill="url(#i)" transform="matrix(-.1931 0 0 .23161 352.747 885.041)"/><path d="M286.536 947.663s-.316-1.389-.567-2.039c-.06-.158-.027-.4-.226-.447-1.468-.347-2.715.373-4.079.447-.569.032-1.148-.108-1.723-.066-.608.045-1.21.265-1.79.066-.185-.063-.306-.301-.491-.367-.46-.165-.987.146-1.442-.04-.533-.218-.909-.8-1.362-1.2-.36-.32-.738-.616-1.082-.962-.535-.538-1.113-1.05-1.522-1.73-1.44-2.394-2.459-5.18-3.124-8.023-.098-.419-.184-.869-.12-1.297.047-.317.286-.555.36-.865.075-.31.231-.695.08-.96-.054-.097-.186-.125-.28-.097-.54.162-.853.872-1.202 1.393-.128.191-.263.39-.32.625-.207.845.32 1.875-.04 2.642-.357.76-1.175 1.052-1.843 1.394-1.329.679-2.765 1.128-4.206 1.249-1.42.119-2.897.015-4.246-.529-1.392-.56-2.614-1.646-3.766-2.738a15.034 15.034 0 0 1-2.443-2.979c-.1-.161-.074-.516-.24-.528-.284-.02-.05 1.786-.24 2.642-.095.423-.326.786-.441 1.201-.13.468-.25.95-.28 1.441-.04.61.062 1.22.12 1.826.071.756.093 1.531.28 2.258.117.46.302.896.52 1.298.068.123.24.336.24.336l6.17.625 5.287 4.516 5.007 6.246 7.21 1.393 8.372-2.595 3.429-4.136z" fill="#50a7a0"/><path d="M287.328 947.575s-2.697 3.013-4.26 4.157c-1.689 1.236-3.506 2.339-5.438 2.853-1.917.512-3.953.56-5.891.176a13.204 13.204 0 0 1-5.245-2.31c-1.571-1.158-2.671-3.05-4.046-4.524-.778-.835-2.379-2.446-2.379-2.446l1.02 6.346-6.038.04-4.726-10.6s2.343-.216 3.513-.135c1.029.071 2.067.207 3.059.544 1.107.376 2.23.839 3.172 1.63 1.4 1.176 2.283 3.06 3.512 4.485 1.084 1.255 2.14 2.58 3.4 3.573 1.152.91 2.392 1.77 3.738 2.134 1.621.44 3.34.287 4.985 0a13.096 13.096 0 0 0 4.192-1.495c1.895-1.072 3.563-2.663 5.212-4.212.425-.4 1.2-1.304 1.2-1.304s.593-.025.793.192c.193.21.227.896.227.896z" fill="#1c110b"/><path d="M244.114 941.552c.348.133.672-1.894 1.034-1.946.38-.056 1.159 1.78 1.502 1.572.327-.198-.653-1.914-.428-2.26.237-.362 1.879.309 2-.129.115-.416-1.58-.764-1.625-1.2-.047-.456 1.512-1.458 1.336-1.869-.167-.391-1.616.79-1.906.522-.305-.282.244-2.279-.12-2.424-.347-.137-.635 1.928-.998 1.98-.381.053-1.223-1.783-1.562-1.571-.324.201.68 1.881.454 2.228-.237.363-1.914-.256-2.032.183-.113.417 1.612.772 1.66 1.206.051.456-1.516 1.439-1.34 1.848.166.389 1.595-.813 1.882-.54.301.285-.222 2.26.143 2.4z" fill="#7c6c65"/><path transform="matrix(-.12223 .12383 .10324 .1466 214.638 967.373)" d="M-229.07 15.048c-1.105 1.765-8.741-4.408-10.48-3.265-1.827 1.199.417 10.736-1.719 11.243-2.034.483-3.03-9.357-5.07-9.784-2.143-.449-7.242 8.034-9.112 6.89-1.781-1.089 4.538-8.594 3.398-10.34-1.197-1.833-11.063.263-11.558-1.876-.472-2.037 9.469-3.079 9.908-5.121.461-2.145-8.058-7.379-6.914-9.246 1.089-1.777 8.681 4.669 10.421 3.517 1.826-1.21-.14-10.975 1.99-11.458 2.029-.46 2.81 9.341 4.858 9.768 2.15.448 7.557-7.973 9.417-6.816 1.77 1.102-4.655 8.742-3.533 10.497C-236.287.9-226.44-1.298-225.95.833c.466 2.029-9.45 2.922-9.864 4.967-.434 2.147 7.904 7.395 6.744 9.249v-.001z" fill="url(#j)"/><path d="M525.38 239.56c-5.683.048-13.212.244-18 .844-8.29 1.038-17.081 1.504-24.469 5.406-5.709 3.016-9.485 8.759-14.094 13.281-6.072 5.959-11.602 12.468-17.844 18.25-4.897 4.536-9.316 10.008-15.344 12.875-7.25 3.449-15.631 4.356-23.656 4.562-6.98.18-14.04-.975-20.75-2.906-8.447-2.431-16.629-6.121-24.062-10.812-3.07-1.937-5.119-5.249-8.281-7.031-3.198-1.802-6.693-3.678-10.281-4.531.599.527 1.17 1.026 1.656 1.406 8.541 6.689 17.189 13.557 27 18.188 6.827 3.222 14.248 5.382 21.719 6.469 8.515 1.239 17.419 1.895 25.812 0 6.972-1.574 13.373-5.29 19.344-9.219 6.518-4.288 12.014-10.017 17.625-15.438 6.368-6.152 10.933-14.266 18.188-19.344 4.881-3.417 10.674-5.408 16.406-7.031 5.136-1.455 10.514-2.069 15.844-2.375 4.523-.26 12.062.189 15.75.437a24.49 24.49 0 0 0 1.656-3.031c-1.214-.002-2.59-.014-4.219 0z" fill="url(#k)" transform="matrix(-.1931 0 0 .23161 352.747 885.041)"/><path d="M537.26 222.58l17.01-2.074 7.053 3.733s1.574 4.497.415 6.224c-1.219 1.815-6.223 2.074-6.223 2.074l-3.319-4.564-16.18 3.734 1.244-9.127z" fill="url(#l)" transform="matrix(-.1931 0 0 .23161 352.747 885.041)"/><path d="M257.22 429.19c0 6.874-5.572 12.446-12.446 12.446s-12.446-5.572-12.446-12.446 5.572-12.446 12.446-12.446 12.446 5.572 12.446 12.446z" transform="matrix(-.03038 0 0 .03644 252.383 922.26)" fill="url(#m)"/><path d="M386.28 261.56c-1.265.362-2.542.402-3.844.313-.316 2.042-.45 4.2.094 5.656 1.404 3.759 8.812 8.219 8.812 8.219s-4.615-5.426-5.281-8.782c-.287-1.447-.11-3.466.219-5.406z" fill="url(#n)" transform="matrix(-.1931 0 0 .23161 352.747 885.041)"/><path d="M397.53 259.25c-.392.211-.793.417-1.219.563-.402.137-.829.185-1.25.218l7.438 6.938s-3.727-4.393-4.969-7.719z" fill="url(#o)" transform="matrix(-.1931 0 0 .23161 352.747 885.041)"/><path d="M585.097 123.933l-39.188-.114 5.929-27.659s7.131-3.521 11.784-3.548c5.202-.031 13.377 3.811 13.377 3.811l8.098 27.51z" fill="url(#p)" transform="matrix(-.1931 0 0 .23161 352.747 885.041)"/><path d="M-453.981 348.439c27.561-46.943 23.508 4.543 38.909 0 13.033-3.844 22.759-4.601 29.182-2.271 28.19 10.227 26.569-12.487-4.863-68.143-16.281-28.827-14.66-61.385 4.863-97.672 8.681-16.137-27.74-54.615-31.613-45.428-13.088 31.041-33.362 12.606-26.751 72.685" transform="translate(129.04 999.03) scale(.2703)" stroke="#000" fill="url(#q)"/><path d="M232.465 952.202c1.168 4.953 3.609 7.043 7.927 9.594 1.761 1.041 4.577-1.866 8.448-8.719 1.546-2.738-.895-.328-7.322 7.231" fill="#080808"/></svg>

<svg class="shoes" width="86" height="380" viewBox="202.715 584.407 86.5933 380.048" preserveAspectRatio="xMidYMid meet" xmlns="http://www.w3.org/2000/svg" xmlns:xlink="http://www.w3.org/1999/xlink">
  <defs id="svgEditorDefs">
    <path id="svgEditorClosePathDefs" class="lines" fill="black" style="stroke-width: 0px; stroke: none;"/>
    <pattern id="pattern4359" patternTransform="matrix(2.8174 0 0 2.8174 -3.9063e-7 -.000023438)" undefined="undefined" xlink:href="#pattern4347"/>
    <pattern id="pattern4350" patternTransform="matrix(.29409 0 0 .29409 -3.9063e-7 .000017754)" undefined="undefined" xlink:href="#pattern4338"/>
    <pattern id="pattern4341" patternTransform="matrix(.60417 0 0 .60417 .000049609 .000011836)" undefined="undefined" xlink:href="#pattern4329"/>
    <pattern id="pattern4323" patternTransform="translate(1024 446.51)" xlink:href="#pattern4078"/>
    <pattern id="pattern4078" width="129.79595" patternUnits="userSpaceOnUse" patternTransform="translate(834.11 482.88)" height="226.4174">
      <path id="path4076" style="fill-rule:evenodd;stroke:#053fa0;stroke-width:4;fill:#ffed00" d="m21.601 52.341s24.286-61.429 58.572-48.572c34.287 12.858 62.857 54.286 38.567 77.143-24.282 22.858-94.282 104.29-112.85 71.428-18.575-32.86 34.283-81.428 55.711-71.428 21.429 10 65.719-28.571 64.289 39.998-1.43 68.57-37.146 128.57-54.289 92.86s-48.571-158.57-50-161.43z"/>
    </pattern>
    <pattern id="pattern4329" width="193.9493" patternUnits="userSpaceOnUse" patternTransform="translate(1004.1 440.81)" height="232.11729">
      <g id="g4325" transform="translate(-1004.1 -440.81)">
        <rect id="rect4321" style="fill-rule:evenodd;fill:#ffffff" height="231.73" width="193.95" y="440.81" x="1004.1"/>
        <rect id="rect4081" style="fill:url(#pattern4323)" height="226.42" width="129.8" y="446.51" x="1024"/>
      </g>
    </pattern>
    <pattern id="pattern4338" width="117.1777" patternUnits="userSpaceOnUse" patternTransform="translate(979.85 512.49)" height="140.23753">
      <rect id="rect4334" style="fill:url(#pattern4341)" height="140.24" width="117.18" y="0" x="0"/>
    </pattern>
    <pattern id="pattern4347" width="34.460896" patternUnits="userSpaceOnUse" patternTransform="translate(979.85 611.48)" height="41.242584">
      <rect id="rect4343" style="fill:url(#pattern4350)" height="41.243" width="34.461" y="0" x="0"/>
    </pattern>
    <pattern id="pattern4356" width="97.090355" patternUnits="userSpaceOnUse" patternTransform="translate(979.85 536.53)" height="116.19713">
      <rect id="rect4352" style="fill:url(#pattern4359)" height="116.2" width="97.09" y="0" x="0"/>
    </pattern>
    <radialGradient id="radialGradient4174" gradientUnits="userSpaceOnUse" cy="4.3172" cx="-244.78" gradientTransform="matrix(1 0 0 .99358 0 .027709)" r="18.846">
      <stop id="stop3130" style="stop-color:#4d4d4d" offset="0"/>
      <stop id="stop3128" style="stop-color:#4c3b34" offset="1"/>
    </radialGradient>
    <linearGradient id="linearGradient4178" y2="220.86" gradientUnits="userSpaceOnUse" x2="409.7" y1="340.76" x1="409.58">
      <stop id="stop3066" style="stop-color:#000000" offset="0"/>
      <stop id="stop3068" style="stop-color:#000000;stop-opacity:0" offset="1"/>
    </linearGradient>
    <linearGradient id="linearGradient4182" y2="231.21" gradientUnits="userSpaceOnUse" x2="532.83" y1="229.45" x1="555.37">
      <stop id="stop3118" style="stop-color:#4a3932" offset="0"/>
      <stop id="stop3120" style="stop-color:#706059" offset="1"/>
    </linearGradient>
    <radialGradient id="radialGradient4192" gradientUnits="userSpaceOnUse" cy="429.19" cx="244.77" r="12.446">
      <stop id="stop3102" style="stop-color:#999999" offset="0"/>
      <stop id="stop3100" style="stop-color:#7c6c65" offset="1"/>
    </radialGradient>
    <linearGradient id="linearGradient4202" y2="274.82" gradientUnits="userSpaceOnUse" x2="391.34" y1="252.52" x1="380.11">
      <stop id="stop3990" style="stop-color:#000000" offset="0"/>
      <stop id="stop3992" style="stop-color:#000000;stop-opacity:0" offset="1"/>
    </linearGradient>
    <linearGradient id="linearGradient4204" y2="268.1" gradientUnits="userSpaceOnUse" x2="404.26" y1="256.07" x1="393.89">
      <stop id="stop3982" style="stop-color:#000000" offset="0"/>
      <stop id="stop3984" style="stop-color:#000000;stop-opacity:0" offset="1"/>
    </linearGradient>
    <linearGradient id="gradient-1" y2="80.156" gradientUnits="userSpaceOnUse" x2="512.16" y1="116.66" x1="449.04" gradientTransform="matrix(1.682496, 0, 0, 0.79752, -234.732923, 41.038464)">
      <stop id="stop-1" style="stop-color:#805d37" offset="0"/>
      <stop id="stop-2" style="stop-color:#2b1100" offset="0.4406"/>
      <stop id="stop-3" style="stop-color:#805d37" offset="1"/>
    </linearGradient>
    <linearGradient id="gradient-2" gradientUnits="userSpaceOnUse" x1="-409.939" y1="133.527" x2="-409.939" y2="348.727">
      <stop offset="0" style="stop-color: rgba(170, 225, 228, 1)"/>
      <stop offset="1" style="stop-color: rgba(92, 198, 203, 1)"/>
    </linearGradient>
    <radialGradient id="gradient-4" gradientUnits="userSpaceOnUse" cx="476.888" cy="153.294" r="52.885">
      <stop offset="0" style="stop-color: rgba(123, 206, 206, 1)"/>
      <stop offset="1" style="stop-color: rgba(61, 166, 166, 1)"/>
    </radialGradient>
  </defs>
  <g>
    <g transform="matrix(0.270302, 0, 0, 0.270302, 350.654022, 868.675537)">
      <g id="g4106" transform="matrix(-0.714413, 0, 0, 0.856871, 7.741515, 60.54594)">
        <path id="path4022" d="M 474.95 288.08 L 468.79 284.266 L 469.376 264.904 L 482.87 256.984 L 474.95 288.08 Z" style="fill:#000000"/>
        <path id="path2991" d="M 433.13 196.03 C 432.913 190.199 432.025 184.412 431.449 178.605 C 430.379 167.815 429.13 157.043 428.152 146.245 C 426.574 128.837 424.003 93.971 424.003 93.971 L 424.833 83.184 C 424.833 83.184 445.768 70.662 457.193 71.568 C 463.486 72.067 467.478 80.48 473.788 80.695 C 482.321 80.986 488.487 70.187 497.021 69.908 C 506.21 69.608 522.743 79.865 522.743 79.865 C 522.743 79.865 526.857 105.914 525.706 118.863 C 525.309 123.338 529.494 127.65 529.655 132.139 C 529.737 134.418 529.814 137.804 529.748 140.084 C 529.614 144.718 529.359 146.031 528.964 150.651 C 528.608 154.821 528.537 160.362 529.172 164.499 C 530.152 170.881 527.48 177.371 529.242 183.583 C 530.461 187.882 528.004 191.57 527.721 196.029 C 527.361 201.713 519.424 210.964 519.424 210.964 L 495.718 232.054 L 483.745 236.686 L 432.642 218.432 C 432.642 218.432 433.408 203.493 433.131 196.029 L 433.13 196.03 Z" style="fill: url(#gradient-4);"/>
        <path id="path2989" d="M 342.87 270.37 C 342.87 270.37 344.504 264.375 345.804 261.569 C 346.12 260.885 345.944 259.839 346.977 259.636 C 354.576 258.14 361.036 261.247 368.099 261.569 C 371.043 261.704 374.046 261.102 377.023 261.283 C 380.171 261.476 383.292 262.426 386.287 261.569 C 387.249 261.294 387.875 260.268 388.834 259.982 C 391.219 259.27 393.944 260.615 396.301 259.812 C 399.063 258.871 401.006 256.359 403.354 254.626 C 405.223 253.247 407.175 251.971 408.955 250.478 C 411.728 248.152 414.721 245.946 416.837 243.01 C 424.291 232.672 429.571 220.638 433.017 208.368 C 433.525 206.559 433.969 204.616 433.64 202.767 C 433.395 201.397 432.159 200.37 431.773 199.033 C 431.386 197.698 430.577 196.034 431.358 194.885 C 431.641 194.468 432.322 194.348 432.81 194.47 C 435.609 195.17 437.226 198.236 439.033 200.485 C 439.694 201.308 440.396 202.169 440.692 203.182 C 441.762 206.832 439.032 211.277 440.9 214.591 C 442.746 217.867 446.983 219.133 450.442 220.607 C 457.323 223.537 464.761 225.479 472.223 226 C 479.574 226.513 487.226 226.066 494.211 223.718 C 501.416 221.296 507.749 216.61 513.71 211.894 C 518.426 208.163 522.78 203.863 526.364 199.033 C 526.88 198.337 526.744 196.803 527.608 196.751 C 529.079 196.664 527.864 204.465 528.853 208.16 C 529.341 209.985 530.537 211.555 531.135 213.346 C 531.809 215.367 532.427 217.445 532.587 219.569 C 532.785 222.197 532.263 224.833 531.965 227.452 C 531.593 230.716 531.478 234.061 530.513 237.201 C 529.904 239.182 528.949 241.067 527.816 242.802 C 527.467 243.336 526.571 244.254 526.571 244.254 L 494.626 246.951 L 467.245 266.45 L 441.316 293.417 L 403.978 299.432 L 360.624 288.23 L 342.87 270.37 Z" style="fill: rgb(80, 167, 160);"/>
        <path id="path2987" d="M 338.77 269.99 C 338.77 269.99 352.734 283.002 360.825 287.938 C 369.573 293.274 378.985 298.036 388.987 300.259 C 398.918 302.466 409.459 302.675 419.496 301.019 C 429.013 299.449 438.442 296.096 446.658 291.045 C 454.792 286.045 460.489 277.874 467.606 271.51 C 471.638 267.904 479.927 260.949 479.927 260.949 L 474.647 288.351 L 505.916 288.524 L 530.385 242.76 C 530.385 242.76 518.253 241.826 512.197 242.174 C 506.867 242.48 501.492 243.066 496.356 244.521 C 490.623 246.144 484.809 248.144 479.928 251.561 C 472.674 256.639 468.108 264.77 461.74 270.923 C 456.129 276.344 450.656 282.063 444.139 286.351 C 438.168 290.28 431.749 293.991 424.777 295.565 C 416.383 297.461 407.477 296.804 398.962 295.565 C 391.491 294.478 384.08 292.334 377.254 289.111 C 367.443 284.481 358.806 277.612 350.265 270.923 C 348.065 269.2 344.051 265.296 344.051 265.296 C 344.051 265.296 340.977 265.184 339.944 266.123 C 338.946 267.028 338.77 269.99 338.77 269.99 L 338.77 269.99 Z" style="fill:#1c110b"/>
        <path id="path2993" style="fill:#7c6c65" d="M -229.07 15.048 C -230.175 16.813 -237.811 10.64 -239.55 11.783 C -241.377 12.982 -239.133 22.519 -241.269 23.026 C -243.303 23.509 -244.299 13.669 -246.339 13.242 C -248.482 12.793 -253.581 21.276 -255.451 20.132 C -257.232 19.043 -250.913 11.538 -252.053 9.792 C -253.25 7.959 -263.116 10.055 -263.611 7.916 C -264.083 5.879 -254.142 4.837 -253.703 2.795 C -253.242 0.65 -261.761 -4.584 -260.617 -6.451 C -259.528 -8.228 -251.936 -1.782 -250.196 -2.934 C -248.37 -4.144 -250.336 -13.909 -248.206 -14.392 C -246.177 -14.852 -245.396 -5.051 -243.348 -4.624 C -241.198 -4.176 -235.791 -12.597 -233.931 -11.44 C -232.161 -10.338 -238.586 -2.698 -237.464 -0.943 C -236.287 0.9 -226.44 -1.298 -225.95 0.833 C -225.484 2.862 -235.4 3.755 -235.814 5.8 C -236.248 7.947 -227.91 13.195 -229.07 15.049 L -229.07 15.048 Z" transform="matrix(.69352 .58576 -.58576 .69352 730.23 367.73)"/>
        <path id="path3124" style="fill:url(#radialGradient4174)" transform="matrix(.63297 .53462 -.53462 .63297 715.19 355.47)" d="M -229.07 15.048 C -230.175 16.813 -237.811 10.64 -239.55 11.783 C -241.377 12.982 -239.133 22.519 -241.269 23.026 C -243.303 23.509 -244.299 13.669 -246.339 13.242 C -248.482 12.793 -253.581 21.276 -255.451 20.132 C -257.232 19.043 -250.913 11.538 -252.053 9.792 C -253.25 7.959 -263.116 10.055 -263.611 7.916 C -264.083 5.879 -254.142 4.837 -253.703 2.795 C -253.242 0.65 -261.761 -4.584 -260.617 -6.451 C -259.528 -8.228 -251.936 -1.782 -250.196 -2.934 C -248.37 -4.144 -250.336 -13.909 -248.206 -14.392 C -246.177 -14.852 -245.396 -5.051 -243.348 -4.624 C -241.198 -4.176 -235.791 -12.597 -233.931 -11.44 C -232.161 -10.338 -238.586 -2.698 -237.464 -0.943 C -236.287 0.9 -226.44 -1.298 -225.95 0.833 C -225.484 2.862 -235.4 3.755 -235.814 5.8 C -236.248 7.947 -227.91 13.195 -229.07 15.049 L -229.07 15.048 Z"/>
        <path id="path3059" d="M 525.38 239.56 C 519.697 239.608 512.168 239.804 507.38 240.404 C 499.09 241.442 490.299 241.908 482.911 245.81 C 477.202 248.826 473.426 254.569 468.817 259.091 C 462.745 265.05 457.215 271.559 450.973 277.341 C 446.076 281.877 441.657 287.349 435.629 290.216 C 428.379 293.665 419.998 294.572 411.973 294.778 C 404.993 294.958 397.933 293.803 391.223 291.872 C 382.776 289.441 374.594 285.751 367.161 281.06 C 364.091 279.123 362.042 275.811 358.88 274.029 C 355.682 272.227 352.187 270.351 348.599 269.498 C 349.198 270.025 349.769 270.524 350.255 270.904 C 358.796 277.593 367.444 284.461 377.255 289.092 C 384.082 292.314 391.503 294.474 398.974 295.561 C 407.489 296.8 416.393 297.456 424.786 295.561 C 431.758 293.987 438.159 290.271 444.13 286.342 C 450.648 282.054 456.144 276.325 461.755 270.904 C 468.123 264.752 472.688 256.638 479.943 251.56 C 484.824 248.143 490.617 246.152 496.349 244.529 C 501.485 243.074 506.863 242.46 512.193 242.154 C 516.716 241.894 524.255 242.343 527.943 242.591 C 528.56 241.628 529.123 240.604 529.599 239.56 C 528.385 239.558 527.009 239.546 525.38 239.56 L 525.38 239.56 Z" style="fill:url(#linearGradient4178)"/>
        <path id="path2999" d="M 537.26 222.58 L 554.27 220.506 L 561.323 224.239 C 561.323 224.239 562.897 228.736 561.738 230.463 C 560.519 232.278 555.515 232.537 555.515 232.537 L 552.196 227.973 L 536.016 231.707 L 537.26 222.58 Z" style="fill:url(#linearGradient4182)"/>
        <path id="path3966" style="fill:url(#radialGradient4192)" d="M 257.22 429.19 C 257.22 436.064 251.648 441.636 244.774 441.636 C 237.9 441.636 232.328 436.064 232.328 429.19 C 232.328 422.316 237.9 416.744 244.774 416.744 C 251.648 416.744 257.22 422.316 257.22 429.19 Z" transform="matrix(.15732 0 0 .15732 519.73 160.69)"/>
        <path id="path3970" d="M 386.28 261.56 C 385.015 261.922 383.738 261.962 382.436 261.873 C 382.12 263.915 381.986 266.073 382.53 267.529 C 383.934 271.288 391.342 275.748 391.342 275.748 C 391.342 275.748 386.727 270.322 386.061 266.966 C 385.774 265.519 385.951 263.5 386.28 261.56 L 386.28 261.56 Z" style="fill:url(#linearGradient4202)"/>
        <path id="path3972" d="M 397.53 259.25 C 397.138 259.461 396.737 259.667 396.311 259.813 C 395.909 259.95 395.482 259.998 395.061 260.031 L 402.499 266.969 C 402.499 266.969 398.772 262.576 397.53 259.25 L 397.53 259.25 Z" style="fill:url(#linearGradient4204)"/>
        <path id="path-1" d="M 585.097 123.933 L 545.909 123.819 L 551.838 96.16 C 551.838 96.16 558.969 92.639 563.622 92.612 C 568.824 92.581 576.999 96.423 576.999 96.423 L 585.097 123.933 Z" style="fill: url(#gradient-1);"/>
      </g>
      <path style="stroke: rgb(0, 0, 0); fill: url(#gradient-2);" d="M -453.981 348.439 C -426.42 301.496 -430.473 352.982 -415.072 348.439 C -402.039 344.595 -392.313 343.838 -385.89 346.168 C -357.7 356.395 -359.321 333.681 -390.753 278.025 C -407.034 249.198 -405.413 216.64 -385.89 180.353 C -377.209 164.216 -413.63 125.738 -417.503 134.925 C -430.591 165.966 -450.865 147.531 -444.254 207.61" transform="matrix(-1, 0, 0, -1, -819.878168, 482.253187)"/>
    </g>
    <path style="stroke: rgb(0, 0, 0); stroke-opacity: 0; fill: rgb(8, 8, 8);" d="M 232.465 952.202 C 233.633 957.155 236.074 959.245 240.392 961.796 C 242.153 962.837 244.969 959.93 248.84 953.077 C 250.386 950.339 247.945 952.749 241.518 960.308"/>
  </g>
</svg>
